X: 16320
T: Grower, The
R: reel
M: 4/4
K: Dminor
||D3E FEFG|Addc AGED|C2EC FCGC|FGFE DCA,G,|
A,DDE FEFG|Ad2c AGED|E2CE FEDC|A,DDE DG,A,C|
D3E FEFG|Adc=B cAGF|E2cA GFEF|EG,A,=B, CDEF|
D3E FEFG|Ad2c AGED|E2CE FEDC|A,DDE DCA,C|
B,3C DG,G2-|GFED EFDC|A,3C DCDE|FDGD ^GDAD|
B,A,B,C Dz B,A,|B,CDE DCA,C|D2dD cdAG|FGEF DCA,C|
B,3C DG,G2-|GFED EFDC|A,3C DCDE|FDGD ^GDAD|
B,A,B,C Dz B,A,|B,CDE DCA,C|DddD cdDd|dDcd cAGF||

